X: 21662
T: THE FASHION WHICH THE LASSES HAVE -- Reel
R: reel
B: K\"ohler's Violin Repository, v.2, 1885 p.166 #2
F: http://www.archive.org/details/klersviolinrepos02rugg
Z: 2012 John Chambers <jc:trillian.mit.edu>
M: C|
L: 1/8
K: F#m
uc !segno!|\
A>F F/F/F (AE)Ec | A>F F/F/F {AB}c2Bc | A>F F/F/F (AE)EA | FGAB {dcB}c2 (B :|
uf) |\
(eA)fA ({dcB}cB)Bf | e<A (f>{gf}e)  c2ca | eAAfA cA(B<c) | (AF)AB {dcB}c2(c |]
f) | (eA)fA ({dcB}cB)Bf | e<A (f{gf}e) c2cb | agfa eacA | FGAB "_Fine."cAB "_D.C."|]

%%sep 2 1 500

